themes/asg/static/images/sponsors/manning.svg

<svg width="179" height="24" viewBox="0 0 179 24" fill="none" xmlns="http://www.w3.org/2000/svg">
<path d="M47.4063 23.3667H45.4749V15.6149L44.2863 19.4148H43.3949L42.2063 15.6149V23.3667H40.2749V8.92694H41.1663L43.8406 16.5268L46.5149 8.92694H47.4063V23.3667Z" fill="white"/>
<path d="M52.9566 19.2627L52.2137 13.1829L51.4709 19.2627H52.9566ZM55.3337 23.3667H53.5509L53.2537 20.7827H51.3223L51.0252 23.3667H49.2423L51.3223 8.92694H53.2537L55.3337 23.3667Z" fill="white"/>
<path d="M62.9459 23.3667H62.0545L58.9345 15.1588V23.3667H57.0031V8.92694H57.8945L61.0145 17.2868V8.92694H62.9459V23.3667Z" fill="white"/>
<path d="M71.3714 23.3701H70.48L67.36 15.1623V23.3701H65.4286V8.93036H66.32L69.44 17.2902V8.93036H71.3714V23.3701Z" fill="white"/>
<path d="M75.7738 23.3974H73.8721V8.92725H75.7738V23.3974Z" fill="white"/>
<path d="M84.2439 23.3701H83.3524L80.2324 15.1623V23.3701H78.301V8.93036H79.1924L82.3124 17.2902V8.93036H84.2439V23.3701Z" fill="white"/>
<path d="M92.6465 22.9718C92.0522 23.2758 91.4579 23.4277 90.5665 23.4277C87.7436 23.4277 86.4065 20.9958 86.4065 16.1319C86.4065 11.268 87.7436 8.83597 90.2693 8.83597C90.7151 8.83597 91.1607 8.83598 91.4579 8.98798V10.508C91.1607 10.508 90.8636 10.3559 90.5665 10.3559C89.0807 10.3559 88.3379 12.3319 88.3379 16.1319C88.3379 19.9318 89.0807 21.9078 90.5665 21.9078C90.715 21.9078 90.715 21.9078 90.715 21.9078V18.8678C90.715 18.1078 90.5665 17.6518 90.4179 17.3478C90.2694 17.1958 90.1207 17.0438 89.8236 17.0438C89.675 17.0438 89.5265 17.0438 89.5265 17.0438V15.5239C89.6751 15.5239 89.9722 15.5239 90.1208 15.5239C91.755 15.5239 92.4979 16.7399 92.4979 19.0198V22.9718H92.6465Z" fill="white"/>
<path d="M101.712 13.3094C101.712 11.4854 101.117 10.5734 100.077 10.5734V16.9573C100.374 16.9573 100.672 16.6533 100.969 16.0453C101.563 15.4373 101.712 14.3733 101.712 13.3094ZM103.792 13.3094C103.792 14.9813 103.346 16.3493 102.306 17.4133C101.712 18.1733 100.969 18.4772 100.226 18.7812V23.4932H98.2944V9.05341H99.7801C100.969 9.05341 101.86 9.35741 102.603 9.9654C103.346 10.5734 103.792 11.7894 103.792 13.3094Z" fill="white"/>
<path d="M111.247 19.9063C111.247 21.1222 110.949 22.0342 110.355 22.6422C109.761 23.2502 109.167 23.5542 108.275 23.5542C107.532 23.5542 106.789 23.2502 106.344 22.6422C105.749 22.0342 105.452 20.9703 105.452 19.9063V8.96244H107.384V20.2103C107.384 20.8183 107.532 21.1222 107.681 21.4262C107.829 21.7302 108.127 21.8822 108.275 21.8822C108.572 21.8822 108.721 21.7302 108.869 21.4262C109.018 21.1222 109.167 20.6663 109.167 20.2103V8.96244H111.098V19.9063H111.247Z" fill="white"/>
<path d="M117.519 18.5718C117.519 17.2038 117.222 16.1398 116.479 15.5318C116.182 15.6838 115.885 15.6838 115.736 15.6838V21.7637C116.182 21.7637 116.628 21.6117 116.925 21.1557C117.222 20.5477 117.519 19.7877 117.519 18.5718ZM117.074 12.3399C117.074 11.2759 116.628 10.6679 115.588 10.5159V14.0118C116.628 14.0118 117.074 13.4038 117.074 12.3399ZM119.451 18.5718C119.451 20.2437 119.005 21.6117 118.114 22.3717C117.371 22.9797 116.479 23.2837 115.291 23.2837H113.805V8.84394H115.439C116.479 8.84394 117.371 9.14793 117.965 9.60392C118.708 10.2119 119.154 11.1239 119.154 12.1879C119.154 13.2518 118.856 14.1638 118.114 14.7718C118.411 15.0758 118.856 15.5318 119.005 15.9878C119.302 16.8998 119.451 17.6598 119.451 18.5718Z" fill="white"/>
<path d="M126.114 23.3667H121.508V8.92694H123.44V21.8467H126.114V23.3667Z" fill="white"/>
<path d="M129.739 23.3974H127.837V8.92725H129.739V23.3974Z" fill="white"/>
<path d="M136.773 23.4408C136.476 23.5928 136.179 23.5928 135.882 23.5928C133.207 23.5928 132.019 21.1608 132.019 16.2969C132.019 11.433 133.356 9.00101 135.882 9.00101C136.179 9.00101 136.476 9.00102 136.773 9.15302V10.673C136.476 10.673 136.179 10.521 136.179 10.521C134.693 10.521 133.95 12.497 133.95 16.2969C133.95 20.0969 134.693 22.0728 136.179 22.0728C136.327 22.0728 136.476 22.0728 136.773 22.0728V23.4408Z" fill="white"/>
<path d="M141.698 19.2627L140.955 13.1829L140.212 19.2627H141.698ZM144.075 23.3667H142.292L141.995 20.7827H140.064L139.767 23.3667H137.984L140.064 8.92694H141.995C141.846 8.92694 144.075 23.3667 144.075 23.3667Z" fill="white"/>
<path d="M150.621 10.5773H148.69V23.4971H146.758V10.5773H144.827V8.90531H150.621V10.5773Z" fill="white"/>
<path d="M154.226 23.3974H152.324V8.92725H154.226V23.3974Z" fill="white"/>
<path d="M160.911 16.1737C160.911 12.3738 160.465 10.3978 159.574 10.3978C158.683 10.3978 158.237 12.3738 158.237 16.1737C158.237 19.9737 158.683 21.9496 159.574 21.9496C160.465 21.9496 160.911 19.9737 160.911 16.1737ZM162.843 16.1737C162.843 19.0617 162.545 21.0376 161.803 22.2536C161.357 23.1656 160.614 23.6216 159.574 23.6216C158.534 23.6216 157.94 23.1656 157.345 22.2536C156.603 21.0376 156.305 19.0617 156.305 16.1737C156.305 13.2858 156.603 11.3098 157.345 10.0938C157.791 9.18184 158.534 8.72581 159.574 8.72581C160.614 8.72581 161.208 9.18184 161.803 10.0938C162.545 11.3098 162.843 13.2858 162.843 16.1737Z" fill="white"/>
<path d="M171.068 23.3667H170.176L167.056 15.1588V23.3667H165.125V8.92694H166.016L169.136 17.2868V8.92694H171.068V23.3667Z" fill="white"/>
<path d="M178.34 19.7269C178.34 20.9429 178.043 21.8549 177.3 22.6149C176.706 23.2229 175.814 23.5269 174.923 23.5269C174.18 23.5269 173.586 23.3749 172.992 23.0709L173.734 21.7029C174.032 21.8549 174.477 22.0069 174.923 22.0069C175.369 22.0069 175.666 21.8549 175.963 21.5509C176.26 21.2469 176.409 20.6389 176.409 20.0309C176.409 18.967 175.814 17.751 174.774 16.231C174.18 15.319 173.734 14.559 173.437 13.951C173.14 13.343 172.992 12.735 172.992 11.975C172.992 11.0631 173.289 10.3031 173.883 9.69508C174.477 9.08709 175.22 8.93509 176.112 8.93509C176.706 8.93509 177.3 9.08711 177.597 9.23911L177.003 10.6071C176.706 10.4551 176.409 10.4551 176.112 10.4551C175.814 10.4551 175.517 10.6071 175.369 10.7591C175.22 11.0631 175.072 11.3671 175.072 11.6711C175.072 12.1271 175.22 12.7351 175.517 13.1911C175.666 13.647 176.112 14.103 176.557 14.863C177.152 15.775 177.597 16.535 177.894 17.295C178.192 18.0549 178.34 18.9669 178.34 19.7269Z" fill="white"/>
<path fill-rule="evenodd" clip-rule="evenodd" d="M4.30859 0.000565052H17.68V14.2884C18.4228 9.57644 19.1657 4.71249 19.7599 0.000565052H33.1313V23.4082H20.5028V3.34453C19.4628 10.0324 18.4228 16.7203 17.5314 23.4082H5.05144V2.43253C3.71431 9.42441 2.52573 16.4163 1.18859 23.4082H0C1.48571 15.6563 2.82288 7.90444 4.30859 0.152574V0.000565052Z" fill="white"/>
</svg>

<svg width="179" height="24" fill="none" xmlns="http://www.w3.org/2000/svg"><path d="M47.406 23.367h-1.931v-7.752l-1.189 3.8h-.891l-1.189-3.8v7.752h-1.931V8.927h.891l2.675 7.6 2.674-7.6h.891v14.44zm5.551-4.104l-.743-6.08-.743 6.08h1.486zm2.377 4.104H53.55l-.297-2.584h-1.932l-.297 2.584h-1.783l2.08-14.44h1.932l2.08 14.44zm7.612 0h-.892l-3.12-8.208v8.208h-1.93V8.927h.89l3.12 8.36v-8.36h1.932v14.44zm8.425.003h-.891l-3.12-8.208v8.208h-1.931V8.93h.891l3.12 8.36V8.93h1.931v14.44zm4.403.027h-1.902V8.927h1.902v14.47zm8.47-.027h-.892l-3.12-8.208v8.208h-1.931V8.93h.891l3.12 8.36V8.93h1.932v14.44zm8.403-.398c-.595.304-1.19.456-2.08.456-2.823 0-4.16-2.432-4.16-7.296 0-4.864 1.337-7.296 3.862-7.296.446 0 .892 0 1.189.152v1.52c-.297 0-.594-.152-.891-.152-1.486 0-2.23 1.976-2.23 5.776s.744 5.776 2.23 5.776h.148v-3.04c0-.76-.148-1.216-.297-1.52-.149-.152-.297-.304-.594-.304h-.297v-1.52h.594c1.634 0 2.377 1.216 2.377 3.496v3.952h.148zm9.065-9.662c0-1.825-.595-2.737-1.635-2.737v6.384c.297 0 .595-.304.892-.912.594-.608.743-1.672.743-2.736zm2.08 0c0 1.671-.446 3.04-1.486 4.103-.594.76-1.337 1.064-2.08 1.368v4.712h-1.932V9.053h1.486c1.189 0 2.08.304 2.823.912.743.608 1.189 1.824 1.189 3.344zm7.455 6.596c0 1.216-.298 2.128-.892 2.736-.594.608-1.188.912-2.08.912-.743 0-1.486-.304-1.931-.912-.595-.608-.892-1.672-.892-2.736V8.962h1.932V20.21c0 .608.148.912.297 1.216.148.304.446.456.594.456.297 0 .446-.152.594-.456a2.91 2.91 0 0 0 .298-1.216V8.962h1.931v10.944h.149zm6.272-1.334c0-1.368-.297-2.432-1.04-3.04-.297.152-.594.152-.743.152v6.08c.446 0 .892-.152 1.189-.608.297-.608.594-1.368.594-2.584zm-.445-6.232c0-1.064-.446-1.672-1.486-1.824v3.496c1.04 0 1.486-.608 1.486-1.672zm2.377 6.232c0 1.672-.446 3.04-1.337 3.8-.743.608-1.635.912-2.823.912h-1.486V8.844h1.634c1.04 0 1.932.304 2.526.76.743.608 1.189 1.52 1.189 2.584s-.298 1.976-1.04 2.584c.297.304.742.76.891 1.216.297.912.446 1.672.446 2.584zm6.663 4.795h-4.606V8.927h1.932v12.92h2.674v1.52zm3.625.03h-1.902V8.927h1.902v14.47zm7.034.043c-.297.153-.594.153-.891.153-2.675 0-3.863-2.432-3.863-7.296 0-4.864 1.337-7.296 3.863-7.296.297 0 .594 0 .891.152v1.52c-.297 0-.594-.152-.594-.152-1.486 0-2.229 1.976-2.229 5.776s.743 5.776 2.229 5.776h.594v1.368zm4.925-4.177l-.743-6.08-.743 6.08h1.486zm2.377 4.104h-1.783l-.297-2.584h-1.931l-.297 2.584h-1.783l2.08-14.44h1.931c-.149 0 2.08 14.44 2.08 14.44zm6.546-12.79h-1.931v12.92h-1.932v-12.92h-1.931V8.905h5.794v1.672zm3.605 12.82h-1.902V8.927h1.902v14.47zm6.685-7.223c0-3.8-.446-5.776-1.337-5.776s-1.337 1.976-1.337 5.776.446 5.776 1.337 5.776 1.337-1.976 1.337-5.776zm1.932 0c0 2.888-.298 4.864-1.04 6.08-.446.912-1.189 1.368-2.229 1.368s-1.634-.456-2.229-1.368c-.742-1.216-1.04-3.192-1.04-6.08s.298-4.864 1.04-6.08c.446-.912 1.189-1.368 2.229-1.368s1.634.456 2.229 1.368c.742 1.216 1.04 3.192 1.04 6.08zm8.225 7.193h-.892l-3.12-8.208v8.208h-1.931V8.927h.891l3.12 8.36v-8.36h1.932v14.44zm7.272-3.64c0 1.216-.297 2.128-1.04 2.888-.594.608-1.486.912-2.377.912a4.034 4.034 0 0 1-1.931-.456l.742-1.368c.298.152.743.304 1.189.304.446 0 .743-.152 1.04-.456.297-.304.446-.912.446-1.52 0-1.064-.595-2.28-1.635-3.8-.594-.912-1.04-1.672-1.337-2.28a4.289 4.289 0 0 1-.445-1.976c0-.912.297-1.672.891-2.28.594-.608 1.337-.76 2.229-.76.594 0 1.188.152 1.485.304l-.594 1.368c-.297-.152-.594-.152-.891-.152-.298 0-.595.152-.743.304-.149.304-.297.608-.297.912 0 .456.148 1.064.445 1.52.149.456.595.912 1.04 1.672.595.912 1.04 1.672 1.337 2.432.298.76.446 1.672.446 2.432z" fill="#fff"/><path fill-rule="evenodd" clip-rule="evenodd" d="M4.309 0H17.68v14.288c.743-4.712 1.486-9.576 2.08-14.287h13.37v23.407H20.503V3.345c-1.04 6.687-2.08 13.375-2.972 20.063H5.051V2.433C3.714 9.424 2.526 16.416 1.19 23.408H0C1.486 15.656 2.823 7.904 4.309.153V0z" fill="#fff"/></svg>
